X:1
T:J.S.BACH
T:Fuga I
T:a 4 Voci.
T:1893-G.Schirmer, Inc
T:1893-G.Schirmer, Inc
Z:1893-G.Schirmer, Inc
%%score { ( 1 2 ) | ( 3 4 ) }
L:1/8
M:4/4
K:C
V:1 treble nm="Piano"
V:2 treble 
V:3 bass 
V:4 bass 
V:1
"^Moderato e maestoso." z8 | z4 z (!1!GA)B | !4!c3/2!5!d/4!3!c/4 !2!Be A!>!!4!d d/e/d/c/ | %3
 !2!B/!1!G/!3!A/!4!B/ !5!c/!2!B/c/d/ !5!e/!2!d/e/^f/ !5!g!2!B | %4
 !5!c!3!A !5!d/c/B/!2!A/ !1!G>!4!A !3!F/E/F/G/ | !5!A/!2!G/!3!A/B/ !5!c4!f!!>(! !4!B2!>)! | %6
 z!p! !2!c!3!d!1!d !2!f3/2g/4f/4 ea | d!>!g- g/a/g/f/ e!>!!4!a- a/b/a/g/ | %8
 !2!!5!f4 !3!e!4!^f !5!g2- | g2 !4!^f2!f! !5!g/=f/e/d/ !1!c/!5!d/!1!!4!c/B/ | %10
 !2!A/!5!c/!4!B/!3!A/ !1!A z z/ !5!c/!4!B/!3!A/ !2!^G!5!e | %11
 !4!d!3!c/!4!B/ !3!A/!2!^G/!3!A/!4!B/ !5!c/!2!^F/!3!G/!4!A/ !5!B!3!A/!4!B/ | %12
 !3!c!5!f !5!e!>!!5!d- d!3!c/!2!B/ B>!1!A | !5!A2 z2 z4 | z4 z !3!G!4!A!3!B | %15
 !4!c3/2!5!d/4!4!c/4 !3!B!4!c !5!d!3!e !4!f3/2!5!g/4!4!f/4 | %16
 !3!e!5!a !3!d!4!g- g/!5!a/!4!g/!3!f/ !2!e!5!a | %17
 !2!d!5!_b !5!a!4!g/!3!f/ !4!g/!3!f/!4!g/!2!e/ !3!f/!4!g/P!4!g/f/4g/4 | %18
 !5!a/^c/d/!5!g/ T!3!e>!1!d !5!d z z2 | z4 z2 z !5!G | !3!A!5!B !4!c3/2d/4c/4 !3!B!5!e !3!A!5!d- | %21
 !5!d/!5!e/d/c/ !2!B/!3!c/!4!d/!5!e/!f! !3!f/g/a/!4!g/ !5!f/!4!e/!3!d/!2!c/ | %22
 !5!=B2 !5!c!5!d !3!G !5!c2 !4!B | !5!c2 !4!B!3!_B !2!A !5!d2 !3!c | %24
 !4!d!5!e !4!f2- f/!5!a/!4!g/!3!f/ !2!e/!4!f/!3!e/!5!d/ | %25
!p! !4!!5!c4 z/ (!2!G/4!3!A/4)!<(!!4!=B/!5!c/ !3!d/!4!e/!5!f-!<)! | %26
!>(! !5!f/4(!2!c/4d/4)e/4!5!f/!4!g/ !5!a>!4!b !fermata!c'4!>)! |] %27
V:2
 z (!5!CD)E !2!F3/2G/4F/4 EA | !5!E!>!!2!G- G/A/G/F/ !4!E/!1!F/E/D/ !4!C/!2!D/C/B,/ | %2
 !5!A,!2!^F !1!G2- G^F/E/ F!4!D | G!2!=FED C z z !1!G- | %4
 !1!G!2!=F/E/ !1!F2- !4!F/!3!F/!f!!2!E !1!D2 | !1!C!1!F z/ !3!G/F/E/ !2!FD !2!G2- | G2 z2 z4 | x8 | %8
 z GAB !2!c3/2!1!d/4!2!c/4 !1!B!3!e | A!>!!2!d- d/!3!e/!1!d/!2!d/ !1!B z z D | %10
 !1!E!2!^F A3/2!3!A/4!1!G/4 !2!^FB !1!E!>!!2!!1!A | %11
 A/!2!B/!1!A/!2!^G/ !1!^F!1!=F !1!E!1!D- D/E/!2!^F/!2!G/ | %12
 !1!A/!2!^G/!1!A/!3!B/ !2!^G/^F/!2!G/B/ B z z2 | z !1!C!2!D!1!E F3/2G/4F/4 E!5!A | %14
 !2!D!5!G- G/!5!A/!4!G/!3!F/ !2!E!1!E!2!^F!2!G- | !2!G!2!^F !2!^G!2!A !2!A!1!=G !1!A=B | %16
 !1!c3/2!3!d/4!2!c/4 !1!B!2!e A!1!d- !1!d/!3!e/!2!d/!1!c/ | !1!B!4!g!2!^c!1!d !2!e!1!c!1!d!2!e | %18
 !4!A z z E !2!^F!3!G !4!A3/2!5!B/4!4!A/4 | %19
 !3!G!5!c !3!^F!5!B- B/!5!c/B/!3!A/ !5!G/!4!F/!3!E/!2!D/ | %20
 !1!E2 !1!D2- D/!2!A/!1!G/!2!=F/ !1!E/!2!G/!1!F/!2!A/ | !1!G2- !1!G/!1!A/!2!_B !1!c2 !2!d!1!G | %22
 !3!G3 !2!F- !2!F!2!E !1!D2 | !1!E !2!A2 !1!G- !1!G!1!F!2!G!1!A | %24
 !2!_B3/2c/4=B/4 !1!A!2!d G!1!c- c/!2!d/!1!c/!3!B/ | %25
 !2!A/!3!_B/A/!1!G/ !2!F/!3!G/!1!F/!2!E/ !1!D2- D>!2!G | !1!A2 z/ !2!f/!1!d [eg]4 |] %27
V:3
"^sempre legato."!p! z8 | z8 |"^cresc." z8 | z (!5!G,!4!A,)!3!B, !2!C3/2D/4C/4 B,E | %4
 A,!>!!2!D- D/E/!2!D/!4!C/ !2!B,!f!C- C!1!_B, | !2!A,D !3!G,!1!C z/ !2!A,/!1!B,/!2!C/ D2 | %6
 !1!G,2"^cresc." z !1!G, A,!2!C !1!C3/2!1!D/4!2!C/4 | %7
 !3!B,!1!E!2!A,!>!!1!D- D/!1!E/!2!D/!1!=C/ !2!=B,!>!!1!E- | E2 !1!D2 !2!C/B,/C/A,/ E/D/C/B,/ | %9
 C/A,/B,/C/ !1!D/C/B,/!4!A,/ !1!G,2 z2 | z8 | z !^!!1!!3!E,!2!^F,!1!^G, !1!A,3/2B,/4A,/4 G,C | %12
 !4!^F,!>!!2!B,- B,/C/!2!B,/A,/"^dimin." !2!^G, A,2 !2!G, | A,2!p! z !5!=G, A,B, !2!C3/2D/4C/4 | %14
 !1!B,!3!E !1!A,!1!D- !1!D"^cresc."G, !1!D2 | C!1!A, E2 D z z2 | %16
 z!f! !1!A,!1!B,!1!^C !1!D3/2!2!E/4!1!D/4 !2!=C!1!=F | !2!B,E- E/F/!2!E/D/ !2!^C z z2 | %18
"^dimin." z !1!A, !2!=B,!2!^C D3/2!2!E/4!1!D/4 !1!=C!2!^D | !1!B,!2!E E/!3!^F/!1!E/!2!D/ !1!C4- | %20
 C/!2!D/!1!C/!2!B,/ !1!A,/G,/A,/^F,/"^cresc." !1!G,!3!B,C!1!D | %21
 !2!E3/2!1!F/4!2!E/4 !3!D!1!G !2!C!1!F- F/!1!G/!1!F/!2!E/ | %22
"^dimin." !1!D2 !2!E!1!D- !1!D!1!G, !1!G,2- |!p! G,!5!C,D,E, !2!F,3/2!<(!G,/4F,/4"^poco" E,A,!<)! | %24
!<(! !4!D,"^a poco rallent."!2!G,- G,/!1!A,/!2!G,/!1!F,/!f!!>(! E,/!3!D,/E,/!1!F,/ !2!G,/!1!A,/!2!_B,/!3!G,/!<)!!>)! | %25
 !1!A,/!3!E,/!2!F,/!1!G,/ !3!A,/=B,/C/!2!A,/ !1!B,4 |!pp! !fermata!C8 |] %27
V:4
 z8 | z8 | z8 | z8 | z4 z (!5!C,!4!D,)!3!E, | %5
 !4!F,3/2!3!G,/4!4!F,/4 !5!E,!2!A, !5!D,!>!!4!G,- G,/!2!A,/!3!G,/!4!F,/ | %6
 !5!E,/!2!F,/E,/D,/ !5!C,/!2!D,/!3!C,/!4!B,,/ A,,!5!D,!3!A,!5!^F, | %7
 !5!G,/!4!A,/!2!_B,/!3!G,/ !5!^C,!5!D, !4!A,2 !5!E,2 | !5!A,/B,/C/!2!D/ !2!C/B,/A,/!5!G,/ C z z2 | %9
 z4 z!f! !5!G,,A,,B,, | !2!C,3/2D,/4C,/4 B,,E, A,,!>!!2!D,- D,/E,/D,/C,/ | %11
 !4!B,, E,2 !4!D, !5!C, !4!=F,2 E,- | !5!E, !5!D,2 !5!E, !3!=F,E,/D,/ !4!E,2 | A,,2 z2 z4 | %14
 z !5!G,,!3!A,,!1!B,, !3!C,3/2!2!D,/4!3!C,/4 !4!B,,!1!E, | %15
 !5!A,,!3!D,- D,/!1!F,/!2!D,/!1!C,/ !2!B,,!3!_B,, !4!A,,!5!G,, | %16
 !4!!5!B,,!3!^F,!2!G,!4!E, !5!D,2 !5!E,!5!=F, | %17
 !4!G,3/2!3!A,/4!4!G,/4 !5!F,!4!_B, !5!E,!>!!1!A,- A,/!2!B,/!1!A,/!2!G,/ | %18
 !3!F,/E,/!3!F,/!5!D,/ !4!G,!3!A, !5!D,4- | %19
 D,/!1!E,/!2!D,/!3!C,/ !1!B,,/A,,/G,,/!4!^F,,/ !5!E,,!1!E,!2!^F,!1!!5!G,- | %20
 G,!4!A,/!5!G,/ !3!^F,D, !5!G,4- | !5!G,4 !5!A,2 !4!=B,!3!C | %22
 !5!F,/!2!A,/!1!G,/!2!F,/ !3!E,/!1!D,/!2!C,/!3!B,,/ !1!C,/!4!D,/!3!E,/!2!F,/ G,G,, | !3!C,8- | %24
 !5!C,8- | !5!C,8- | C,8 |] %27

